X:4
T:Pavan \340 5: 'Lachrimae'
%%measurenb 0
%%scale 0.7
%%squarebreve
%%footer "$T	Page $P	Gumbleton Music, 2009\n"
%%MIDI program 1 43
%%MIDI program 2 44
%%MIDI program 3 44
%%MIDI program 4 44
%%MIDI program 5 44
C:Thomas Weelkes
P:Tenor I
M:C|
L:1/4
K:F clef=alto middle=c 
d4 c2 d2| d f2 f a g f2 |z c/B/ A G d3 c|
B A G2 d2 _e g |^f g2 f g4 ::d2 f2 f>_e c B-|
B/c/ d2 d e f g e | ^f g a d z g =f2 |f f2 _e d2 c =e|
d4 d4:: d3 e f g a2-|a2 f3 e d2-|d2 d _e g4 |
g2 f2 g2 f2-|f c d4 d c-|c =B A2 HG4 :|]

